packages/katcn/src/icons/svg/feather.svg

<svg width="24" height="24" viewBox="0 0 24 24" fill="none" xmlns="http://www.w3.org/2000/svg">
<path d="M21.1283 2.78378C19.9384 1.69369 18.4511 1 16.7655 1C15.0799 1 13.5926 1.69369 12.4027 2.78378L6.05686 9.12613C5.06532 10.1171 4.47039 11.5045 4.47039 12.991V18.1441L1.29746 21.3153C0.900846 21.7117 0.900846 22.3063 1.29746 22.7027C1.49577 22.9009 1.69408 23 1.99154 23C2.289 23 2.48731 22.9009 2.68562 22.7027L6.15601 19.2342L12.0061 13.3874C12.4027 12.991 12.4027 12.3964 12.0061 12C11.6095 11.6036 11.0146 11.6036 10.6179 12L6.45347 16.1622V12.991C6.45347 12.0991 6.85009 11.2072 7.44501 10.5135L13.7909 4.17117C14.5841 3.37838 15.6748 2.88288 16.7655 2.88288C17.8562 2.88288 18.9469 3.27928 19.7401 4.17117C21.4257 5.85586 21.4257 8.53153 19.7401 10.1171L13.3943 16.4595C12.7002 17.1532 11.9069 17.4504 10.9154 17.4504H10.2213C9.72556 17.4504 9.22979 17.8468 9.22979 18.4414C9.22979 19.036 9.6264 19.4324 10.2213 19.4324H11.0146C12.5019 19.4324 13.7909 18.8378 14.8816 17.8468L21.2274 11.5045C23.6071 9.22523 23.6071 5.26126 21.1283 2.78378Z" fill="black"/>
</svg>

<svg xmlns="http://www.w3.org/2000/svg" fill="none" viewBox="0 0 24 24"><path fill="#000" d="M21.128 2.784C19.938 1.694 18.451 1 16.765 1c-1.685 0-3.172.694-4.362 1.784L6.057 9.126a5.47 5.47 0 0 0-1.587 3.865v5.153l-3.173 3.171a.96.96 0 0 0 0 1.388c.199.198.397.297.695.297s.495-.1.694-.297l3.47-3.469 5.85-5.847a.96.96 0 0 0 0-1.387.96.96 0 0 0-1.388 0l-4.165 4.162v-3.171c0-.892.397-1.784.992-2.477l6.346-6.343c.793-.793 1.884-1.288 2.974-1.288s2.182.396 2.975 1.288c1.686 1.685 1.686 4.36 0 5.946l-6.346 6.342c-.694.694-1.487.991-2.479.991h-.694a.993.993 0 0 0-.991.991c0 .595.396.991.991.991h.794c1.487 0 2.776-.594 3.867-1.585l6.345-6.343c2.38-2.279 2.38-6.243-.099-8.72"/></svg>
